src/scalable/apps/preferences-system-network-share-windows.svg

<svg width="64" height="64" version="1.1" xmlns="http://www.w3.org/2000/svg">
 <rect x="5" y="5" width="54" height="54" rx="27" ry="27" fill="#343739" stroke-width="1.0385"/>
 <path d="m30 10.094c-10.584 0.94594-18.96 9.3221-19.906 19.906h19.906v-19.906zm4 0v19.906h19.906c-0.94594-10.584-9.3221-18.96-19.906-19.906zm-23.906 23.906c0.94594 10.584 9.3221 18.96 19.906 19.906v-19.906h-19.906zm23.906 0v19.906c10.584-0.94594 18.96-9.3221 19.906-19.906h-19.906z" fill="#38aaeb"/>
 <path d="m40 14v2h-20c-1.2206-0.0029-2.3751 0.55439-3.132 1.512-0.56232 0.70734-0.8683 1.5844-0.868 2.488v10c6.06e-4 0.22796 0.02068 0.45546 0.06 0.68 0.06745 0.39389 0.19351 0.77546 0.374 1.132 0.6821 1.3424 2.0603 2.188 3.566 2.188h22c0.34354 0.0013 0.68099 0.09085 0.98 0.26 0.14026 0.07875 0.27053 0.1741 0.388 0.284 0.40328 0.37682 0.63214 0.90407 0.632 1.456v6c0 1.1046-0.89543 2-2 2h-18v-2l-6 4 6 4v-2h20c1.0826 0.0028 2.1196-0.43557 2.872-1.214 0.46636-0.4807 0.80468-1.0707 0.984-1.716 0.096111-0.34852 0.14455-0.70847 0.144-1.07v-10c-6.06e-4 -0.22796-0.02068-0.45546-0.06-0.68-0.06745-0.39389-0.19351-0.77546-0.374-1.132-0.6821-1.3424-2.0603-2.188-3.566-2.188h-22c-0.34354-0.0013-0.68099-0.09085-0.98-0.26-0.14026-0.07875-0.27053-0.1741-0.388-0.284-0.40328-0.37682-0.63214-0.90407-0.632-1.456v-6c0-1.1046 0.89543-2 2-2h18v2l6-4z" fill="#ffffff"/>
</svg>

<svg xmlns="http://www.w3.org/2000/svg" width="64" height="64"><rect width="54" height="54" x="5" y="5" fill="#343739" rx="27" ry="27"/><path fill="#38aaeb" d="M30 10.094A21.937 21.937 0 0 0 10.094 30H30V10.094zm4 0V30h19.906A21.937 21.937 0 0 0 34 10.094zM10.094 34A21.937 21.937 0 0 0 30 53.906V34H10.094zM34 34v19.906A21.937 21.937 0 0 0 53.906 34H34z"/><path fill="#fff" d="M40 14v2H20a3.98 3.98 0 0 0-3.132 1.512A3.996 3.996 0 0 0 16 20v10c0 .228.02.455.06.68A4 4 0 0 0 20 34h22a2.006 2.006 0 0 1 1.368.544c.403.377.632.904.632 1.456v6a2 2 0 0 1-2 2H24v-2l-6 4 6 4v-2h20a4.004 4.004 0 0 0 4-4V34c0-.228-.02-.455-.06-.68A4 4 0 0 0 44 30H22a2.006 2.006 0 0 1-1.368-.544A1.992 1.992 0 0 1 20 28v-6a2 2 0 0 1 2-2h18v2l6-4z"/></svg>
